X: 34934
T: Rocking The Cradle
R: jig
M: 6/8
K: Amajor
e2 d|:cBA Bed|cBG BAB|cBA Bed|cAA A2 B|
cBc ded|cBA Bed|cBc dBG|1 BAA Aed:|2 BAA A2 f||
=gfe fed|eac BAf|=gfe dcd|ea^g a2 b|
=gfe fed|eac BAE|Ace dBG|1 BAA A2 f:|2 BAA A3||

